!!!COM: Grieg, Edvard
!!!CDT: 1843/06/15/-1907/09/04/
!!!OTL: Sonata in E minor
!!!OPS: Op. 7
!!!OMV: No. 1
!!!OMD: Allegro moderato
!!!ODT: 1865-1867///
**kern	**kern	**dynam
*staff2	*staff1	*staff1/2
*clefF4	*clefG2	*clefG2
*k[f#]	*k[f#]	*k[f#]
*e:	*e:	*e:
*M2/4	*M2/4	*M2/4
*MM110	*MM110	*MM110
=1-	=1-	=1-
16EE/LL	(4ee\	p
16G/	.	.
16BB/	.	.
16G/JJ	.	.
16EE/LL	4b\	.
16G/	.	.
16BB/	.	.
16G/JJ	.	.
=2	=2	=2
16EE/LL	4.g/)	.
16G/	.	.
16BB/	.	.
16G/JJ	.	.
16EE/LL	.	.
16G/	.	.
16BB/	(8f#/	.
16G/JJ	.	.
=3	=3	=3
16EE/LL	8.e/L	.
16G/	.	.
16C/	.	.
16G/JJ	16d/k	.
16EE/LL	8c/	.
16G/	.	.
16C/	8B/J)	.
16G/JJ	.	.
=4	=4	=4
16EE/LL	(4B^/	.
16F#/	.	.
16C#/	.	.
16F#/JJ	.	.
16EE/LL	8A#/)	.
16F#/	.	.
16C#/	8r	.
16F#/JJ	.	.
=5	=5	=5
*	*^	*
16DD#/LL	(8B/	4B\	.
16F#/	.	.	.
16BB/	4.b/	.	.
16F#/JJ	.	.	.
16AA/LL	.	8c#\L	<
16F#/	.	.	.
16BB/	.	8d#\J)	.
16F#/JJ	.	.	.
=6	=6	=6	=6
16GG#\LL	8e/	(4e\	.
16B\	.	.	.
16E\	4.ee/	.	.
16B\JJ	.	.	.
16Dn\LL	.	8f#\L	.
16B\	.	.	.
16E\	.	8g#\J)	.
16B\JJ	.	.	.
*	*v	*v	*
=7	=7	=7
16r	[4a^/	.
16C\LL	.	.
16F#\	.	.
16A\JJ	.	.
&(8e\&)	16a/LL]	.
.	(16b/	.
8r	16g#/	.
.	16a/JJ	.
=8	=8	=8
2r	16cc\LL	.
.	16ee\	.
.	16aa\	.
.	16ccc\JJ	.
.	8aaa\)	.
.	16r	.
.	16ff#\	.
*clefG2	*	*
=9	=9	=9
16r	([4ee^\	<
(16A/LL	.	.
16e/	.	.
16f#/JJ	.	.
8cc\)	16ee\LL]	.
.	16dd#\	.
8r	16ee\	.
.	16ff#\JJ)	.
=10	=10	=10
16r	([4aa\	.
(16A#/LL	.	.
16e/	.	.
16g/JJ	.	.
8cc\)	16aa\LL]	.
.	16gg\	.
8r	16ff#\	.
.	16ee\JJ)	.
=11	=11	=11
8r	8bb\	f
8B/ 8e/ 8g/ 8b/	8bb\ 8eee\ 8ggg\ 8bbb\	.
8r	8r	.
*clefF4	*	*
8BB\ 8E\ 8G\ 8B\	8b\ 8ee\ 8gg\ 8bb\	.
=12	=12	=12
8r	8r	.
8BB\ 8E\ 8F#\ 8B\	8b\ 8ee\ 8ff#\ 8bb\	.
8r	8r	.
8BB\ 8D#\ 8F#\ 8B\	8b\ 8dd#\ 8ff#\ 8bb\	.
=13	=13	=13
2r	4ee^\ 4eee^\	ff
.	4b^\ 4bb^\	.
=14	=14	=14
4E^\ 4e^\	4.g^\ 4.gg^\	.
4BB^\ 4B^\	.	.
.	8f#\ 8ff#\	.
=15	=15	=15
[2GG^/ [2G^/	8.e/ 8.ee/L	.
.	16d/ 16dd/k	.
.	8c/ 8cc/	.
.	8B/ 8b/J	.
=16	=16	=16
8.GG/] 8.G/L]	(4B/ 4b/	.
16FF#/ 16F#/k	.	.
8EE/ 8E/	4A#/) 4a#/	.
8DD/ 8D/J	.	.
=17	=17	=17
8CC#'/ 8C#'/L	16r	.
.	16g/ 16a#/LL	.
8FFF#'/ 8FF#'/	16A#/ 16e/	.
.	16g/ 16a#/JJ	.
(8BBB/ 8BB/	(8d/ 8e/ 8g/ 8dd/L	.
8AAA#/) 8AA#/J	8c#/) 8cc#/J	.
=18	=18	=18
8AAA#'/ 8AA#'/L	16r	.
.	16g/ 16cc#/LL	.
8FFF#'/ 8FF#'/	16c#/ 16e/	.
.	16g/ 16cc#/JJ	.
(8DD^/ 8D^/	(8B/ 8e/ 8g/ 8b/L	.
8CC#/) 8C#/J	8A#/) 8a#/J	.
=19	=19	=19
8CC#'/ 8C#'/L	16r	.
.	16g/ 16a#/LL	.
8FFF#'/ 8FF#'/	16A#/ 16e/	.
.	16g/ 16a#/JJ	.
(8BBB^/ 8BB^/	(8d/ 8e/ 8g/ 8dd/L	.
8AAA#/) 8AA#/J	8c#/) 8cc#/J	.
=20	=20	=20
8AAA#'/ 8AA#'/L	16r	.
.	16g/ 16cc#/LL	.
8FFF#'/ 8FF#'/	16c#/ 16e/	.
.	16g/ 16cc#/JJ	.
(8DD^/ 8D^/	(8B/ 8e/ 8g/ 8b/L	.
8CC#/) 8C#/J	8A#/) 8a#/J	.
=21	=21	=21
8FF#'/ 8F#'/L	16r	.
.	16ccn/ 16dd#/LL	.
8BBB'/ 8BB'/	16d#/ 16a/	.
.	16cc/ 16dd#/JJ	.
(8EE^/ 8E^/	8g\ 8a\ 8cc\ (8gg\L	.
8DD#/) 8D#/J	8f#\ 8ff#\J)	.
=22	=22	=22
8DD#'/ 8D#'/L	16r	.
.	16cc\ 16ff#\LL	.
8BBB'/ 8BB'/	16f#\ 16a\	.
.	16cc\ 16ff#\JJ	.
(8GG^/ 8G^/	(8e/ 8a/ 8cc/ 8ee/L	.
8FF#/) 8F#/J	8d#/) 8dd#/J	.
=23	=23	=23
8FF#'/ 8F#'/L	16r	.
.	16cc/ 16dd#/LL	.
8BBB'/ 8BB'/	16d#/ 16a/	.
.	16cc/ 16dd#/JJ	.
(8EE/ 8E/	8g\ 8a\ 8cc\ (8gg\L	.
8DD#/) 8D#/J	8f#\ 8ff#\J)	.
=24	=24	=24
8DD#'/ 8D#'/L	16r	.
.	16cc\ 16ff#\LL	.
8BBB'/ 8BB'/	16f#\ 16a\	.
.	16cc\ 16ff#\JJ	.
(8GG/ 8G/	(8e/ 8a/ 8cc/ 8ee/L	.
8FF#/) 8F#/J	8d#/) 8dd#/J	.
=25	=25	=25
4CC^/ 4EE^/ 4C^/	4a^\ 4ee^\ 4aa^\	.
8.BBB^/ 8.EE^/ 8.BB^/L	8.b^\ 8.ee^\ 8.bb^\L	.
16BBB/ 16EE/ 16BB/Jk	16b\ 16ee\ 16bb\Jk	.
=26	=26	=26
8AAA/ 8EE/ 8AA/L	8cc'\ 8ee'\ 8ccc'\L	.
8CC'/ 8EE'/ 8C'/	8a'\ 8ee'\ 8aa'\	.
8AAA'/ 8EE'/ 8AA'/	8cc'\ 8ee'\ 8ccc'\	.
8CC'/ 8EE'/ 8C'/J	8a'\ 8ee'\ 8aa'\J	.
=27	=27	=27
4AAA/ 4EE/ 4AA/	4cc\ 4ee\ 4ccc\	.
8.F#^\ 8.f#^\L	8.ff#^\ 8.fff#^\L	.
16F#^\ 16f#^\Jk	16ff#^\ 16fff#^\Jk	.
=28	=28	=28
4F#^\ 4f#^\	4ff#^\ 4fff#^\	.
4F#^\ 4f#^\	4ff#^\ 4fff#^\	.
=29	=29	=29
4CC#^/ 4EE^/ 4C#^/	4a#^\ 4ee^\ 4aa#^\	.
8.BBB^/ 8.EE^/ 8.BB^/L	8.b^\ 8.ee^\ 8.bb^\L	.
16BBB/ 16EE/ 16BB/Jk	16b\ 16ee\ 16bb\Jk	.
=30	=30	=30
8AAA#'/ 8EE'/ 8AA#'/L	8cc#'\ 8ee'\ 8ccc#'\L	.
8CC#'/ 8EE'/ 8C#'/	8a#'\ 8ee'\ 8aa#'\	.
8AAA#'/ 8EE'/ 8AA#'/	8cc#'\ 8ee'\ 8ccc#'\	.
8CC#'/ 8EE'/ 8C#'/J	8a#'\ 8ee'\ 8aa#'\J	.
=31	=31	=31
4AAA#/ 4EE/ 4AA#/	4cc#\ 4ee\ 4ccc#\	.
8.F#^\ 8.f#^\L	8.ff#^\ 8.fff#^\L	.
16F#^\ 16f#^\Jk	16ff#^\ 16fff#^\Jk	.
=32	=32	=32
4F#^\ 4f#^\	4ff#^\ 4fff#^\	.
4F#^\ 4f#^\	4ff#^\ 4fff#^\	.
=33	=33	=33
4BB\ 4B\	4b\ 4bb\	.
8.AA\ 8.BB\ 8.A\L	8.cc\ 8.ccc\L	.
16AA-\ 16BB\ 16A-\Jk	16cc#\ 16ccc#\Jk	.
=34	=34	=34
8GG'\ 8BB'\ 8G'\L	8dd'\ 8ddd'\L	.
8BB'\ 8B'\J	8b'\ 8bb'\J	.
8GG'/ 8BB'/ 8G'/	8dd'\ 8ddd'\	.
8r	8r	.
=35	=35	=35
8FF#'/ 8BB'/ 8F#'/L	8dd#'\ 8ddd#'\L	.
8AAn'/ 8BB'/ 8An'/J	8b'\ 8bb'\J	.
8FF#'/ 8BB'/ 8F#'/	8dd#'\ 8ddd#'\	.
8r	8r	.
=36	=36	=36
8BB'/L	8A/ 8d#/L	p
8AA'/ 8BB'/	8A'/ 8B'/	.
8GG'/ 8BB'/	8A'/ 8d#'/	.
8FF#'/ 8BB'/J	8A'/ 8B'/J	.
*	*clefF4	*clefF4
=37	=37	=37
*^	*	*
[2BB/	4EE^\	24r	.
.	.	(24G\LL	.
.	.	24F#\	.
.	.	24E\	.
.	.	24G\	.
.	.	24B\JJ)	.
.	4GG^\	24r	.
.	.	(24B\LL	.
.	.	24A\	.
.	.	24G\	.
.	.	24B\	.
.	.	24e\JJ)	.
=38	=38	=38	=38
*	*	*^	*
4BB/]	4FF#^\	4r	24r	.
.	.	.	(24c\LL	<
.	.	.	24B\	.
.	.	.	24A\	.
.	.	.	24c\	.
.	.	.	24e\JJ)	.
4BBB/ 4BB/	4r	(8e/L	4A\ 4c\	.
.	.	8d#/J)	.	.
*	*	*v	*v	*
*	*	*clefG2	*clefG2
=39	=39	=39	=39
[2BB/	4EE^\	24r	.
.	.	(24g/LL	p
.	.	24f#/	.
.	.	24e/	.
.	.	24g/	.
.	.	24b/JJ)	.
.	4GG^\	24r	<
.	.	(24b\LL	.
.	.	24a\	.
.	.	24g\	.
.	.	24b\	.
.	.	24ee\JJ)	.
=40	=40	=40	=40
*	*	*^	*
4BB/]	4FF#^\	4r	24r	.
.	.	.	(24cc\LL	.
.	.	.	24b\	.
.	.	.	&(24a\&)	.
.	.	.	24cc\	.
.	.	.	24ee\JJ)	.
4BBB/ 4BB/	4r	(8ee/L	4a\ 4cc\	.
.	.	8dd#/J)	.	.
*v	*v	*	*	*
=41	=41	=41	=41
4EE/ 4BB/	24r	4r	.
.	(24g/LL	.	<
.	24f#/	.	.
.	24e/	.	.
.	24g/	.	.
.	24b/JJ)	.	.
4CC#^/ [4BB^/	(8b/L	4e\ 4g\	.
.	8a#/J)	.	.
=42	=42	=42	=42
4DD#/ 4BB/]	4r	24r	.
.	.	(24b\LL	.
.	.	24a#\	.
.	.	24an\	.
.	.	24b\	.
.	.	24ff#\JJ)	.
4EE/ 4BB/	(8ff#^/L	4g\ 4b\	.
.	8ee/J)	.	.
=43	=43	=43	=43
4EE/ 4BB/	4r	24r	.
.	.	(24gg\LL	.
.	.	24ff#\	.
.	.	24ee\	.
.	.	24gg\	.
.	.	24bb\JJ)	.
4CC#^/ [4BB^/	(8bb^/L	4ee\ 4gg\	.
.	8aa#/J)	.	.
=44	=44	=44	=44
4DD#/ 4BB/]	4r	24r	.
.	.	(24bb\LL	.
.	.	24aa#\	.
.	.	24aan\	.
.	.	24bb\	.
.	.	24fff#\JJ)	.
4EE/ 4BB/	(8fff#^/L	4gg\ 4bb\	.
.	8eee/J)	.	.
*	*v	*v	*
=45	=45	=45
8CC#/ 8C#/	8r	.
*clefG2	*	*
4c#^/ 4g^/ 4b^/	4ee^\ 4gg^\ 4eee^\	ff
[8c#^/ [8g^/ [8b^/	[8ee^\ [8gg^\ [8eee^\	.
=46	=46	=46
8c#/] 8g/] 8b/L]	8ee\] 8gg\] 8eee\L]	.
8g/ 8b/	8dd#\ 8gg\ 8ddd#\	.
8f#/ 8g/ 8b/	8ddn\ 8gg\ 8dddn\	.
8e/ 8g/ 8b/J	8cc#\ 8gg\ 8ccc#\J	.
=47	=47	=47
8r	8r	.
8e/ 8g/L	8cc#\ 8gg\ 8ccc#\L	.
8.e/ 8.g/	8.b\ 8.gg\ 8.bb\	.
16e-/ 16g/Jk	16a\ 16gg\ 16aa\Jk	.
=48	=48	=48
8e-'/ 8g'/L	8a'\ 8gg'\ 8aa'\L	<
8d'/ 8g'/J	8a#'\ 8gg'\ 8aa#'\J	.
[4c#/ 4en/ ([4g/	4b^\ 4een^\ [4bb^\	.
=49	=49	=49
8c#/] 8e/) 8g/]	16bb\LL]	.
.	16aa#\	>
8r	16ccc#\	.
.	16bb\JJ	.
4r	16gg\LL	.
.	16ee\	.
.	16b\	.
.	&(16g\JJ&)	.
*clefF4	*	*
=50	=50	=50
[2D\	4B/ 4d/ 4g/	p
.	8A/ 8d/ 8f#/L	.
.	16r	.
.	16B/ 16d/ 16g/Jk	.
=51	=51	=51
2D\_	8c'/ 8d'/ 8a'/L	.
.	8A'/ 8d'/ 8f#'/J	.
.	4B^/ 4d^/	.
=52	=52	=52
*^	*	*
2D/_	4DD\	(8c/ 8e/L	.
.	.	8A/ 8f#/J	.
.	4GG\	4B/) 4d/	.
=53	=53	=53	=53
2D/]	4DD\	(8c/ 8e/L	.
.	.	8A/ 8f#/J	.
.	4GG\	4B/) 4d/	.
*v	*v	*	*
=54	=54	=54
[2F#\	4d/ 4f#/ 4b/	<
.	8c#/ 8f#/ 8a#/L	.
.	16r	.
.	16d/ 16f#/ 16b/Jk	.
=55	=55	=55
2F#\_	8e'/ 8f#'/ 8cc#'/L	.
.	8c#'/ 8f#'/ 8a#'/J	.
.	4d^/ 4f#^/	.
=56	=56	=56
*^	*	*
2F#/_	4FF#\	(8e/ 8g/L	.
.	.	8c#/ 8an/J	.
.	4BB\	4d^/) 4f#^/	.
=57	=57	=57	=57
2F#/]	4FF#\	(8e/ 8g/L	.
.	.	8c#/ 8a/J	.
.	4BB\	4d^/) 4f#^/	.
*v	*v	*	*
=58	=58	=58
4E#\ 4B\	4d/ 4g/	pp
8F#\ 8B\L	8d/ 8f#/L	.
16r	16r	.
16E#\ 16B\Jk	16d/ 16g/Jk	.
=59	=59	=59
8En'\ 8B'\L	8d'/ 8a-'/L	.
8Fn'\ 8B'\J	8d'/ 8g'/J	.
4E^\ 4B^\	4d^/ 4a-^/	.
=60	=60	=60
4D\ 4G#\	4fn/ 4b/	.
8D\ 8G#\L	8f/ 8a#/L	.
16r	16r	.
16D\ 16G#\Jk	16f/ 16b/Jk	.
=61	=61	=61
8C'\ 8A'\L	8fn'/ 8cc'/L	.
8C'\ 8A'\J	8f'/ 8b'/J	.
4C^\ 4A^\	4f^/ 4cc^/	.
=62	=62	=62
4C#\ 4A#\	4g'\ 4ee-'\	<
8.C#\ 8.A#\L	8.g\ 8.dd\L	.
16C#\ 16A#\Jk	16g\ 16ee-\Jk	.
=63	=63	=63
8D'\ 8B'\L	8g'\ 8dd'\L	.
8D'\ 8A#'\J	8g'\ 8cc#'\J	.
4D^\ 4B^\	4g^\ 4dd^\	.
=64	=64	=64
8D'\ 8An'\L	8g'\ 8ee'\L	.
8D'\ 8A'\J	8g'\ 8dd#'\J	.
4D^\ 4A^\	4g^\ 4ee^\	.
=65	=65	=65
8D'\ 8c'\L	8f#'/ 8a'/L	.
8D'\ 8c'\J	8f#'/ 8g#'/J	.
4D^\ 4c^\	4f#^/ 4a^/	.
=66	=66	=66
16GG\LL	4r	.
16B\	.	.
16D\	.	.
16B\JJ	.	.
16GG\LL	(4gg\	p
16B\	.	.
16D\	.	.
16B\JJ	.	.
=67	=67	=67
16GG\LL	8ff#\L	.
16B\	.	.
16D#\	8bb\J)	.
16B\JJ	.	.
16GG\LL	8r	.
16B\	.	.
16D#\	(8ff#\	.
16B\JJ	.	.
=68	=68	=68
16GG\LL	8ee\L	.
16B\	.	.
16E\	8bb\J)	.
16B\JJ	.	.
16GG\LL	8r	.
16B\	.	.
16E\	(8ee\	.
16B\JJ	.	.
=69	=69	=69
16GG#\LL	8dd#\L	.
16B\	.	.
16E\	8bb\	.
16B\JJ	.	.
16GG#\LL	8ddn\	.
16B\	.	.
16E\	8bb\J)	.
16B\JJ	.	.
=70	=70	=70
16AA\LL	4r	.
16c\	.	.
16E\	.	.
16c\JJ	.	.
16AA\LL	(4ee\	.
16c\	.	.
16E\	.	.
16c\JJ	.	.
=71	=71	=71
16AA\LL	8dd#\L	.
16c\	.	.
16Fn\	8aa\J)	.
16c\JJ	.	.
16AA\LL	8r	.
16c\	.	.
16F\	(8dd#\	.
16c\JJ	.	.
=72	=72	=72
16AA\LL	8ddn\L	.
16c\	.	.
16F#\	8aa\J)	.
16c\JJ	.	.
16AA\LL	8r	.
16c\	.	.
16F#\	(8dd\	.
16c\JJ	.	.
=73	=73	=73
16FF#\LL	8cc#\L	.
16A\	.	.
16D\	8aa\	.
16A\JJ	.	.
16FF#\LL	8ccn\	.
16A\	.	.
16D\	8aa\J)	.
16A\JJ	.	.
=74	=74	=74
*	*^	*
16r	(8b/	2b\	<
(16GG/LL	.	.	.
16D/	4aa^/	.	.
16G/JJ	.	.	.
8B\)	.	.	.
8r	8gg/)	.	.
=75	=75	=75	=75
16r	(8a/	2a\	.
(16C\LL	.	.	.
16F#\	4gg^/	.	.
16A\JJ	.	.	.
8e\)	.	.	.
8r	8ff#/)	.	.
=76	=76	=76	=76
16r	(8g/	2g\	.
(16BB\LL	.	.	.
16G\	4ff#^/	.	.
16B\JJ	.	.	.
8e\)	.	.	.
8r	8ee/)	.	.
=77	=77	=77	=77
16r	(8d#/	2d#\	>
(16AA/LL	.	.	.
16E/	4ddn^/	.	.
16F#/JJ	.	.	.
8c\)	.	.	.
8r	8cc/)	.	.
=78	=78	=78	=78
16r	(8dn/	2d\	.
(16GG#/LL	.	.	.
16D/	4cc^/	.	.
16Fn/JJ	.	.	.
8B\)	.	.	.
8r	8b/)	.	.
=79	=79	=79	=79
16r	(8c#/	4c#^\	.
(16AA/LL	.	.	.
16E/	4b^/	.	.
16F#/JJ	.	.	.
8c\)	.	4cn^\	.
8r	8a/)	.	.
=80	=80	=80	=80
16r	(8B^/	4B^\	.
(16BB\LL	.	.	.
16G\	4a^/	.	.
16c#\JJ	.	.	.
8e\)	.	4A#^\	.
8r	8g/)	.	.
=81	=81	=81	=81
(16BBB/LL	(8An/	2A^\	.
16BB/	.	.	.
16C##/	4g^/	.	.
[16D#/JJ	.	.	.
4D#\] 4d#\)	.	.	.
.	8f#/)	.	.
*	*v	*v	*
=82	=82	=82
16EE/LL	4ee^\ 4eee^\	ff
16G#/	.	.
16BB/	.	.
16G#/JJ	.	.
16EE/LL	4b^\ 4bb^\	.
16G#/	.	.
16BB/	.	.
16G#/JJ	.	.
=83	=83	=83
16EE/LL	4.g#^\ 4.gg#^\	.
16G#/	.	.
16BB/	.	.
16G#/JJ	.	.
16EE/LL	.	.
16G#/	.	.
16BB/	8f#^\ 8ff#^\	.
16G#/JJ	.	.
=84	=84	=84
16EE/LL	8.e^/ 8.ee^/L	.
16G#/	.	.
16C#/	.	.
16G#/JJ	16d#/ 16dd#/k	.
16EE/LL	8c#^/ 8cc#^/	.
16G#/	.	.
16C#/	8B^/ 8b^/J	.
16G#/JJ	.	.
=85	=85	=85
16EE/LL	(4B^/ 4b^/	.
16F#/	.	.
16C#/	.	.
16F#/JJ	.	.
16EE/LL	8A#/) 8a#/	.
16F#/	.	.
16C#/	8r	.
16F#/JJ	.	.
=86	=86	=86
*	*^	*
12DD^/ 12D^/	4bb^/ 4bbb^/	12r	.
6r	.	12d\ 12f#\ 12b\	.
.	.	12d\ 12f#\ 12b\	.
4r	4ff#^/ 4fff#^/	12d\ 12f#\ 12b\L	.
.	.	12d\ 12f#\ 12b\	.
.	.	12d\ 12f#\ 12b\J	.
=87	=87	=87	=87
2r	4.dd/ 4.ddd/	12r	.
.	.	12d\ 12f#\ 12b\L	.
.	.	12d\ 12f#\ 12b\J	.
.	.	12d\ 12f#\ 12b\L	.
.	.	12d\ 12f#\ 12b\	.
.	8cc#/ 8ccc#/	.	.
.	.	12d\ 12f#\ 12b\J	.
=88	=88	=88	=88
2r	6b/ (6bb/	12r	.
.	.	6d\ 6f#\ 6b\	.
.	12a/ 12aa/)	.	.
.	6g/ (6gg/	12r	.
.	.	6d\ 6g\ 6b\	.
.	12f#/ &(12ff#/&))	.	.
=89	=89	=89	=89
2r	4f#^/ (4ff#^/	12r	.
.	.	12d\ 12g#\ 12b\L	.
.	.	12d\ 12g#\ 12b\J	.
.	8e/ 8ee/)	12r	.
.	.	12d\ 12g#\ 12b\L	.
.	8r	.	.
.	.	12c\ 12g#\ 12b\J	.
=90	=90	=90	=90
12Cn/ 12cn/	4aa^/ 4aaa^/	8cn\ 8e\ 8a\	ff
6r	.	.	.
.	.	8c\ 8e\ 8a\	.
4r	4ee^/ 4eee^/	12c\ 12e\ 12a\L	.
.	.	12c\ 12e\ 12a\	.
.	.	12c\ 12e\ 12a\J	.
*	*v	*v	*
=91	=91	=91
*^	*	*
12A^/L	4A^\	4.cc^\ 4.ccc^\	.
12c/ 12e/	.	.	.
12c/ 12e/J	.	.	.
12E^/L	4E^\	.	.
12c/ 12e/	.	.	.
.	.	8b\ 8bb\	.
12c/ 12e/J	.	.	.
=92	=92	=92	=92
12C/L	2C^\	6a\ (6aa\	.
12A/ 12e/J	.	.	.
12r	.	12g\ 12gg\	.
12r	.	6fn\ 6ffn\	.
12A/ 12e/	.	.	.
12r	.	12e/ 12ee/)	.
*v	*v	*	*
=93	=93	=93
12r	4e/ 4ee/	<
12A#\ 12f#\L	.	.
12A#\ 12f#\J	.	.
12r	6d#/ (6dd#/	.
12A#\ 12f#\L	.	.
12A#\ 12f#\J	&(12e/&) 12ee/)	.
=94	=94	=94
*k[b-e-a-d-]	*k[b-e-a-d-]	*k[b-e-a-d-]
*M6/8	*M6/8	*M6/8
*^	*	*
2.E-/	(4E-\	8r	.
.	.	4G/ 4d-/ 4e-/	.
.	8D-\	.	.
.	4C-\	8r	.
.	.	4G/ 4d-/ 4e-/	.
.	8BB-\)	.	.
=95	=95	=95	=95
*	*	*^	*
8r	(4.BB-^\	(8cc-/L	8r	.
4E-/ 4c-/	.	8dd-/	4e-\	.
.	.	8ee-/J	.	.
8r	4AA-\)	8b-/L	8r	.
4E-/ 4c-/	.	8cc-/)	4e-\	.
.	8r	8g/J	.	.
=96	=96	=96	=96	=96
2.E-/	(4E-\	(4.b-^/	8r	.
.	.	.	4Bn\ 4dn\ 4f\	.
.	8D-\	.	.	.
.	4C-\	4a-/)	8r	.
.	.	.	4B\ 4d\ 4f\	.
.	8BB-\)	8r	.	.
=97	=97	=97	=97	=97
8r	(4.BB-^\	(8dd-/L	8r	.
4F-/ 4d-/	.	8ee-/	4f-\	.
.	.	8ff-/J	.	.
8r	4AA-\)	8cc/L	8r	.
4F-/ 4d-/	.	8dd-/	4f-\	.
.	8r	8a-/J)	.	.
*v	*v	*	*	*
=98	=98	=98	=98
(4F-\	(4.cc-^/	8r	.
.	.	4c-\ 4d-\ 4g\	.
8E-\	.	.	.
4D-\	4b-/)	8r	.
.	.	4B-\ 4f-\ 4g\	.
8C-/)	8r	.	.
*	*v	*v	*
=99	=99	=99
*^	*	*
.	.	(dd-q/	.
8r	(4.C-^\	(8gg-\L)	.
4G-/ 4d-/	.	8g-\	.
.	.	8gn\J	.
8r	4BB-\)	8a-\L	.
4G-/ 4f-/	.	8an\	.
.	8r	8b-\ 8ee-\J)	.
*v	*v	*	*
=100	=100	=100
*	*^	*
(8G-\L	(4.dd-^/	8r	.
8A-\	.	4d-\ 4e-\ 4b--\	.
8B--\J	.	.	.
8Fn\L	4cc/)	8r	.
8G-\	.	4c\ 4e-\ 4b--\	.
8E-\J)	8r	.	.
*	*v	*v	*
=101	=101	=101
*^	*	*
.	.	(ee-q/	.
8r	(4.D-^\	(8aa-\L)	.
4A-/ 4e-/	.	8a-\	.
.	.	8an\J	.
8r	4C\)	16b-\LL	.
.	.	16bn\	.
4A-/ 4g-/	.	16cc\	.
.	.	16dd-\	.
.	8r	16ddn\	.
.	.	16ee-\JJ)	.
*v	*v	*	*
=102	=102	=102
.	(ee-q/	.
*	*^	*
8D-\L	(8gg-/L)	8r	f
8d-\ 8f-\	8ff-/	8a-\L	.
8d-\ 8f-\J	8ff-/J)	8a-\J	.
8r	(8aa-^/L	8r	.
8c-\ 8e-\L	8ee-/	8a-\L	.
8c-\ 8e-\J	8ee-/J)	8a-\J	.
=103	=103	=103	=103
8r	(8ee-^/L	8r	.
8B-\ 8d-\L	8dd-/	8f-\L	.
8B-\ 8d-\J	8dd-/J)	8f-\J	.
8r	(8ff-/L	8r	.
8A-\ 8c-\L	8cc-/	8f-\L	.
8A-\ 8c-\J	8cc-/J)	8f-\J	.
=104	=104	=104	=104
8r	(8cc-/L	8r	>
8Fn\ 8B-\L	8b-/	8dn\ 8a-\L)	.
8F\ 8B-\J	8b-/J	8d\ 8a-\J	.
8r	(8ffn/L	8r	.
8BB-\ 8B-\L	8b-/	8d\ 8a-\L)	.
8BB-\ 8B-\J	8b-/J	8d\ 8a-\J	.
=105	=105	=105	=105
8r	(8cc-^/L	8r	.
8G-\ 8B-\L	8b-/	8e-\ 8g-\L	.
8G-\ 8B-\J	8b-/J)	8e-\ 8g-\J	.
8r	(8ee-^/L	8r	.
8BB-\ 8B-\L	8b-/	8e-\ 8g-\L	.
8BB-\ 8B-\J	8b-/J)	8e-\ 8g-\J	.
*	*v	*v	*
=106	=106	=106
*k[f#]	*k[f#]	*k[f#]
*^	*	*
2.BB/	(4BB\	8r	.
*	*	*clefF4	*clefF4
.	.	4D#\ 4A\ 4B\	p
.	8AA\	.	.
.	4GG\	8r	.
.	.	4D#\ 4A\ 4B\	.
.	8FF#\)	.	.
*	*	*clefG2	*clefG2
=107	=107	=107	=107
*	*	*^	*
8r	(4.FF#^\	(8g/L	8r	.
4BB/ 4G/	.	8a/	4B\	.
.	.	8b/J	.	.
8r	4EE\)	8f#/L	8r	.
4BB/ 4G/	.	8g/	4B\	.
.	8r	8d#/J)	.	.
=108	=108	=108	=108	=108
2.BB/	(4BB\	(4.f#^/	8r	.
.	.	.	4G\ 4A#\ 4c#\	.
.	8AA\	.	.	.
.	4GG\	4e/)	8r	.
.	.	.	4G\ 4A#\ 4c#\	.
.	8FF#\)	8r	.	.
=109	=109	=109	=109	=109
8r	(4.FF#^\	8an/L	8r	.
4C/ 4An/	.	8b/	4c\	.
.	.	8cc/J	.	<
8r	4EE\)	8g#/L	8r	.
4C/ 4A/	.	8a/	4c\	.
.	8r	8e/J	.	.
*v	*v	*	*	*
=110	=110	=110	=110
(4C/	(4.gn^/	8r	.
.	.	4A\ 4e-\	.
8BB/	.	.	.
4AA/	4f#/)	8r	.
.	.	4c\ 4e-\	.
8GG/)	8r	.	.
*	*v	*v	*
=111	=111	=111
*^	*	*
.	.	(aq/	.
8r	(4.GG^\	8dd/L)	.
4D/ 4A/	.	(8d/	.
.	.	8d#/J	.
8r	4FF#\)	8e/L	.
4D/ 4c/	.	8e#/	.
.	8r	8f#/) 8b/J	.
*v	*v	*	*
=112	=112	=112
*	*^	*
(8D\L	(4.a^/	8r	.
8E\	.	4B\ 4fn\	.
8Fn\J	.	.	.
8C#/L	4g#/)	8r	.
8D/	.	4B\ 4f\	.
8BB/J)	8r	.	.
*	*v	*v	*
=113	=113	=113
*^	*	*
.	.	(bq/	.
8r	(4.AA\	(8ee/L)	.
4E/ 4B/	.	8e/	.
.	.	8e#/J	.
8r	4GG#\)	16f#/LL	.
.	.	16g/	.
4E/ 4d/	.	16g#/	.
.	.	16a/	.
.	8r	16a#/	.
.	.	16b/JJ)	.
*v	*v	*	*
=114	=114	=114
.	(bq/	.
*	*^	*
8AA/ 8A/	(8ddd^/L)	8r	f
4r	8ee/ 8ccc/)	8a\ 8cc\L	.
.	8ee/ 8ccc/J	8a\ 8cc\J	.
4.r	(8eee^/L	8r	.
.	8ee/ 8bb/)	8g\ 8b\L	.
.	8ee/ 8bb/J	8g\ 8b\J	.
=115	=115	=115	=115
2.r	(8bb^/L	8r	.
.	8cc/ 8aa/)	8f#\ 8a\L	.
.	8cc/ 8aa/J	8f#\ 8a\J	.
.	(8ccc^/L	8r	.
.	8cc/ 8gg/	8e\ 8g\L	.
.	8cc/ 8gg/J)	8e\ 8g\J	.
=116	=116	=116	=116
2.r	(8gg^/L	8r	.
.	8a#/ 8ee/ 8ff#/)	8c#\ 8f#\L	.
.	8a#/ 8ee/ 8ff#/J	8c#\ 8f#\J	.
.	(8ccc#^/L	8r	.
.	8a#/ 8ee/ 8ff#/)	8F#\ 8f#\L	.
.	8a#/ 8ee/ 8ff#/J	8F#\ 8f#\J	.
=117	=117	=117	=117
2.r	(8gg^/L	8r	.
.	8an/ 8ee/ 8ff#/)	8cn\ 8f#\L	.
.	8a/ 8ee/ 8ff#/J	8c\ 8f#\J	.
.	(8cccn^/L	8r	.
.	8a/ 8ee/ 8ff#/)	8F#\ 8f#\L	.
.	8a/ 8ee/ 8ff#/J	8F#\ 8f#\J	.
*	*v	*v	*
=118	=118	=118
16BBB/LL	4r	.
16BB/	.	.
16BBB/	.	.
16BB/	.	.
16BBB/	8r	.
16BB/JJ	.	.
16BBB/LL	16B^/LL	p
16BB/	16c/	.
16BBB/	16B/	.
16BB/	16c/	.
16BBB/	16B/	.
16BB/JJ	16c/JJ	.
=119	=119	=119
16BBB/LL	16A^/LL	.
16BB/	16c/	.
16BBB/	16A/	.
16BB/	16c/	.
16BBB/	16A/	.
16BB/JJ	16c/JJ	.
16BBB/LL	16G^/LL	.
16BB/	16e/	.
16BBB/	16G/	.
16BB/	16e/	.
16BBB/	16G/	.
16BB/JJ	16e/JJ	.
=120	=120	=120
*^	*	*
16BBB/LL	4.r	16F#^/LL	.
16BB/	.	16d#/	.
16BBB/	.	16F#/	.
16BB/	.	16d#/	.
16BBB/	.	16F#/	.
16BB/JJ	.	16d#/JJ	.
16Fn^/LL	16BBB\LL	4.r	.
16A/	16BB\	.	.
16F/	16BBB\	.	.
16A/	16BB\	.	.
16F/	16BBB\	.	.
16A/JJ	16BB\JJ	.	.
=121	=121	=121	=121
16E^/LL	16BBB\LL	2.r	.
16c/	16BB\	.	.
16E/	16BBB\	.	.
16c/	16BB\	.	.
16E/	16BBB\	.	.
16c/JJ	16BB\JJ	.	.
16G^/LL	16BBB\LL	.	.
16A#/	16BB\	.	.
16G/	16BBB\	.	.
16A#/	16BB\	.	.
16G/	16BBB\	.	.
16A#/JJ	16BB\JJ	.	.
=122	=122	=122	=122
8D#/ 8B/	16BBB\LL	8r	.
.	16BB\	.	.
4r	16BBB\	8b\L	.
.	16BB\	.	.
.	16BBB\	8b\J	.
.	16BB\JJ	.	.
16BBB/LL	4.r	(8b^\L	.
16BB/	.	.	.
16BBB/	.	8a\ 8cc\)	.
16BB/	.	.	.
16BBB/	.	8a\ 8cc\J	.
16BB/JJ	.	.	.
*v	*v	*	*
=123	=123	=123
16BBB/LL	8a^\ (8cc^\L	.
16BB/	.	.
16BBB/	8g\ 8ee\)	.
16BB/	.	.
16BBB/	8g\ 8ee\J	.
16BB/JJ	.	.
16BBB/LL	8g^\ (8ee^\L	.
16BB/	.	.
16BBB/	8f#\ 8dd#\)	.
16BB/	.	.
16BBB/	8f#\ 8dd#\J	.
16BB/JJ	.	.
=124	=124	=124
16BBB/LL	(8f#^/ 8dd#^/L	<
16BB/	.	.
16BBB/	8fn/) 8a/	.
16BB/	.	.
16BBB/	8f/ 8a/J	.
16BB/JJ	.	.
16BBB/LL	(8f^/ 8a^/L	.
16BB/	.	.
16BBB/	8e/) 8cc/	.
16BB/	.	.
16BBB/	8e/ 8cc/J	.
16BB/JJ	.	.
=125	=125	=125
16BBB/LL	(8e^/ 8cc^/L	.
16BB/	.	.
16BBB/	8g/) 8a#/	.
16BB/	.	.
16BBB/	8g/ 8a#/J	.
16BB/JJ	.	.
16BBB/LL	(8g/ 8a#/L	.
16BB/	.	.
16BBB/	8d#/) 8b/	.
16BB/	.	.
16BBB/	8d#/ 8b/J	.
16BB/JJ	.	.
=126	=126	=126
4.BBB/ 4.BB/	8d#/ 8b/L	ff
.	8e/ 8cc/	.
.	8f#/ 8ddn/J	.
4.EE/	8g/ 8ee/L	>
.	8f#/ 8dd/	.
.	8e/ 8cc/J	.
=127	=127	=127
4.BBB/ 4.BB/	8d#/ 8b/L	<
.	8e/ 8cc/	.
.	8f#/ 8ddn/J	.
4.EE/	8g/ 8ee/L	>
.	8f#/ 8dd/	.
.	8e/ 8cc/J	.
=128	=128	=128
[2.BBB/ [2.BB/	8d#'/ 8b'/L	.
.	(8d#/ 8b/	.
.	8c/) 8a/J	.
.	8d#'/ 8b'/L	.
.	(8d#/ 8b/	.
.	8B/) 8g/J	.
=129	=129	=129
2.BBB/] 2.BB/]	8d#'/ 8b'/L	.
.	(8d#/ 8b/	.
.	8A#/) 8f#/J	.
.	8d#'/ 8b'/L	.
.	(8d#/ 8b/	.
.	8An/) 8g/J	.
=130	=130	=130
.	(eq/	.
(8EE/L	4.ee^\)	p
8G/	.	.
8BB/J)	.	.
(8EE/L	4.b^\	.
8G/	.	.
8BB/J)	.	.
=131	=131	=131
(8EE/L	[4.g^/	.
8G/	.	.
8BB/J)	.	.
(8EE/L	4g/]	.
8G/	.	.
8BB/J)	8f#/	.
=132	=132	=132
(8EE/L	(8e/L	.
8G/	8f#/	.
8C/J)	8g/J	.
(8EE/L	8d#/L	.
8G/	8e/	.
8C/J)	8c/J)	.
=133	=133	=133
(8EE/L	(4.B^/	.
8F#/	.	.
8C#/J)	.	.
(8EE/L	4A#/)	.
8F#/	.	.
8C#/J)	8r	.
=134	=134	=134
*	*^	*
(8DD#/L	(4B/	4.B\	.
8F#/	.	.	.
8BB/J	[8b/	.	.
8AAn/L	4.b/]	4c#\	.
8F#/	.	.	.
8BB/J)	.	8d#\)	<
=135	=135	=135	=135
(8GG#\L	4e/	(4.e\	.
8B\	.	.	.
8E\J	[8ee/	.	.
8Dn\L	4.ee/]	4f#\	.
8B\	.	.	.
8E\J)	.	8g#\)	.
*	*v	*v	*
=136	=136	=136
8C\L	[4.a/	p
8A\ 8c\ 8fn\	.	.
8A\ 8c\ 8f\J	.	.
8A\ 8c\ 8f\	(16a\LL]	.
.	16b\	.
8r	16g#\	.
.	16a\	.
8r	16cc\	.
.	16ffn\JJ	.
=137	=137	=137
2.r	16aa\LL	.
.	16ccc\	.
.	16fffn\	.
.	16aaa\	.
.	16cccc\	.
.	16eeeen\JJ	.
.	8aaa\)	.
.	8r	.
.	8ffn'\	.
*clefG2	*	*
=138	=138	=138
(8A/L	4.ee^\	.
8e/) 8f#/ 8cc/	.	.
8e/ 8f#/ 8cc/J	.	.
4r	8dd#'\L	<
.	8ee'\	.
8r	8ff#'\J	.
=139	=139	=139
(8A#/L	4.aa^\	.
8e/) 8g/ 8ccn/	.	.
8e/ 8g/ 8cc/J	.	.
4r	8gg'\L	.
.	8ff#'\	.
8r	8ee'\J	.
=140	=140	=140
*M2/4	*M2/4	*M2/4
8.r	8bb'\L	f
.	16r	.
16B/ 16e/ 16g/ 16b/	16bb\ 16eee\ 16ggg\ 16bbb\Jk	.
8B/ 8e/ 8g/ 8b/	8bb\ 8eee\ 8ggg\ 8bbb\	.
16r	16r	.
*clefF4	*	*
16BB\ 16E\ 16G\ 16B\	16b\ 16ee\ 16gg\ 16bb\	.
=141	=141	=141
8BB\ 8E\ 8G\ 8B\	8b\ 8ee\ 8gg\ 8bb\	.
16r	16r	.
16BB\ 16E\ 16F#\ 16B\	16b\ 16ee\ 16ff#\ 16bb\	.
8BB'\ 8E'\ 8F#'\ 8B'\L	8b'\ 8ee'\ 8ff#'\ 8bb'\L	.
8BB'\ 8D#'\ 8F#'\ 8B'\J	8b'\ 8dd#'\ 8ff#'\ 8bb'\J	.
=142	=142	=142
2r	4ee^\ 4eee^\	ff
.	4b^\ 4bb^\	.
=143	=143	=143
4E^\ 4e^\	4.g\ 4.gg\	.
4BB^\ 4B^\	.	.
.	8f#\ 8ff#\	.
=144	=144	=144
2GG/ 2G/	12e\ 12ee\L	.
.	12f#\ 12ff#\	.
.	12g\ 12gg\J	.
.	12d#/ 12dd#/L	.
.	12e/ 12ee/	.
.	12c/ 12cc/J	.
=145	=145	=145
12EE/ 12E/L	(4B/ 4b/	.
12FF#/ 12F#/	.	.
12GG/ 12G/J	.	.
12DD#/ 12D#/L	8A#/) 8a#/	.
12EE/ 12E/	.	.
.	8r	.
12DDn/ 12Dn/J	.	.
=146	=146	=146
8CC#'/ 8C#'/L	16r	.
.	16g/ 16a#/LL	.
8FFF#'/ 8FF#'/	16A#/ 16e/	.
.	16g/ 16a#/JJ	.
(8BBB/ 8BB/	(8d^/ 8e^/ 8g^/ 8dd^/L	.
8AAA#/) 8AA#/J	8c#/) 8cc#/J	.
=147	=147	=147
8AAA#'/ 8AA#'/L	16r	.
.	16g/ 16cc#/LL	.
8FFF#'/ 8FF#'/	16c#/ 16e/	.
.	16g/ 16cc#/JJ	.
(8DD/ 8D/	(8B^/ 8e^/ 8g^/ 8b^/L	.
8CC#/) 8C#/J	8A#/) 8a#/J	.
=148	=148	=148
8CC#'/ 8C#'/L	16r	.
.	16g/ 16a#/LL	.
8FFF#'/ 8FF#'/	16A#/ 16e/	.
.	16g/ 16a#/JJ	.
(8BBB/ 8BB/	(8d/ 8e/ 8g/ 8dd/L	.
8AAA#/) 8AA#/J	8c#/) 8cc#/J	.
=149	=149	=149
8AAA#'/ 8AA#'/L	16r	.
.	16g/ 16cc#/LL	.
8FFF#'/ 8FF#'/	16c#/ 16e/	.
.	16g/ 16cc#/JJ	.
(8DD/ 8D/	(8B/ 8e/ 8g/ 8b/L	.
8CC#/) 8C#/J	8A#/) 8a#/J	.
=150	=150	=150
8FF#'/ 8F#'/L	16r	.
.	16ccn/ 16dd#/LL	f
8BBB'/ 8BB'/	16d#/ 16a/	.
.	16cc/ 16dd#/JJ	.
(8EE^/ 8E^/	8g^\ 8a^\ 8cc^\ (8gg^\L	.
8DD#/) 8D#/J	8f#\ 8ff#\J)	.
=151	=151	=151
8DD#'/ 8D#'/L	16r	.
.	16cc\ 16ff#\LL	.
8BBB'/ 8BB'/	16f#\ 16a\	.
.	16cc\ 16ff#\JJ	.
(8GG^/ 8G^/	(8e^/ 8a^/ 8cc^/ 8ee^/L	.
8FF#/) 8F#/J	8d#/) 8dd#/J	.
=152	=152	=152
8FF#'/ 8F#'/L	16r	.
.	16cc/ 16dd#/LL	.
8BBB'/ 8BB'/	16d#/ 16a/	.
.	16cc/ 16dd#/JJ	.
(8EE^/ 8E^/	8g^\ 8a^\ 8cc^\ (8gg^\L	.
8DD#/) 8D#/J	8f#\ 8ff#\J)	.
=153	=153	=153
8DD#'/ 8D#'/L	16r	.
.	16cc\ 16ff#\LL	.
8BBB'/ 8BB'/	16f#\ 16a\	.
.	16cc\ 16ff#\JJ	.
(8GG^/ 8G^/	(8e^/ 8a^/ 8cc^/ 8ee^/L	.
8FF#/) 8F#/J	8d#/) 8dd#/J	.
=154	=154	=154
4CC/ 4EE/ 4C/	4a^\ 4ee^\ 4aa^\	.
8.BBB/ 8.EE/ 8.BB/L	8.b\ 8.ee\ 8.bb\L	.
16BBB/ 16EE/ 16BB/Jk	16b\ 16ee\ 16bb\Jk	.
=155	=155	=155
8AAA'/ 8EE'/ 8AA'/L	8cc'\ 8ee'\ 8ccc'\L	.
8CC'/ 8EE'/ 8C'/J	8a'\ 8ee'\ 8aa'\J	.
8AAA'/ 8EE'/ 8AA'/	8cc'\ 8ee'\ 8ccc'\	.
8r	8r	.
=156	=156	=156
4CC#^/ 4EE^/ 4C#^/	4a#^\ 4ee^\ 4aa#^\	.
8.BBB/ 8.EE/ 8.BB/L	8.b\ 8.ee\ 8.bb\L	.
16BBB/ 16EE/ 16BB/Jk	16b\ 16ee\ 16bb\Jk	.
=157	=157	=157
8AAA#'/ 8EE'/ 8AA#'/L	8cc#'\ 8ee'\ 8ccc#'\L	.
8CC#'/ 8EE'/ 8C#'/J	8a#'\ 8ee'\ 8aa#'\J	.
8AAA#'/ 8EE'/ 8AA#'/	8cc#'\ 8ee'\ 8ccc#'\	.
8r	8r	.
=158	=158	=158
4BB\ 4B\	4b\ 4bb\	.
8.AA\ 8.BB\ 8.A\L	8.cc\ 8.ccc\L	.
16AA-\ 16BB\ 16A-\Jk	16cc#\ 16ccc#\Jk	.
=159	=159	=159
8GG'\ 8BB'\ 8G'\L	8dd\ 8ddd\L	.
8BB'\ 8B'\J	8b'\ 8bb'\J	.
8GG'/ 8BB'/ 8G'/	8dd'\ 8ddd'\	.
8r	8r	.
=160	=160	=160
8FFn'/ 8BB'/ 8Fn'/L	8dd#'\ 8ddd#'\L	.
8AA'/ 8BB'/ 8A'/J	8b'\ 8bb'\J	.
8FF'/ 8BB'/ 8F'/	8dd#'\ 8ddd#'\	.
8r	8r	.
=161	=161	=161
8EE'/L	8G#'/ 8e'/L	p
8DDn'/ 8EE'/	8G#'/ 8dn'/	.
8CC'/ 8EE'/	8G#'/ 8c'/ 8e'/	.
8BBB'/ 8EE'/J	8G#'/ 8B'/J	.
=162	=162	=162
*^	*	*
[2EE/	4AAA\	24r	.
.	.	(24c/LL	p
.	.	24B/	.
.	.	24A/	.
.	.	24c/	.
.	.	24e/JJ)	.
.	4CC^\	24r	.
.	.	(24e/LL	.
.	.	24d/	.
.	.	24c/	.
.	.	24e/	.
.	.	24a/JJ)	.
=163	=163	=163	=163
*	*	*^	*
4EE/]	4BBB^\	24r	4r	.
.	.	(24fn/LL	.	.
.	.	24e/	.	.
.	.	24d/	.	.
.	.	24f/	.	.
.	.	24a/JJ)	.	.
4EEE/ 4EE/	4r	(8a^/L	4d\ 4fn\	ff
.	.	8g#/J)	.	.
*	*	*v	*v	*
=164	=164	=164	=164
[2E/	4AA^\	24r	.
.	.	(24cc\LL	.
.	.	24b\	.
.	.	24a\	.
.	.	24cc\	.
.	.	24ee\JJ)	.
.	4C^\	24r	.
.	.	(24ee\LL	.
.	.	24dd\	.
.	.	24cc\	.
.	.	24ee\	.
.	.	24aa\JJ)	.
=165	=165	=165	=165
*	*	*^	*
4E/]	4BB\	4r	24r	.
.	.	.	(24ffn\LL	.
.	.	.	24ee\	.
.	.	.	24dd\	.
.	.	.	24ff\	.
.	.	.	24aa'\JJ)	.
4EE^/ 4E^/	4r	8aa/L	4dd\ 4ff\	.
.	.	8gg#/J	.	.
*v	*v	*	*	*
=166	=166	=166	=166
4AA/ 4E/	24r	4r	mf
.	(24c/LL	.	.
.	24B/	.	.
.	24A/	.	.
.	24c/	.	.
.	24e/JJ)	.	.
4FF#^/ [4E^/	(8e^/L	4A\ 4c\	.
.	8d#/J)	.	.
*	*v	*v	*
=167	=167	=167
4GG#/ 4E/]	24r	.
.	(24e/LL	<
.	24d#/	.
.	24dn/	.
.	24fn/	.
.	24b/JJ)	.
4AA^/ 4E^/	(8c^/ 8e^/ 8b^/L	.
.	8a/J)	.
=168	=168	=168
*	*^	*
4AA/ 4E/	4r	24r	.
.	.	(24cc\LL	.
.	.	24b\	.
.	.	24a\	.
.	.	24cc\	.
.	.	24ee\JJ)	.
4FF#^/ [4E^/	(8ee^/L	4a\ 4cc\	.
.	8dd#/J)	.	.
*	*v	*v	*
=169	=169	=169
4GG#/ 4E/]	24r	.
.	(24ee\LL	.
.	24dd#\	<
.	24ddn\	.
.	24ffn\	.
.	24bb\JJ)	.
4AA/ 4E/	8cc^\ 8ee^\ (8bb^\L	.
.	8aa\J)	.
=170	=170	=170
*	*^	*
8FF#/ 8F#/	8r	8r	.
4r	4ee^/ 4ccc^/	4c^\ 4e^\ 4cc^\	ff
8r	[8ee/ [8ccc/	[8c\ (8e\ [8cc\	.
=171	=171	=171	=171
2r	8ee/] 8ccc/L]	8c\]) 8e\ 8cc\L]	.
.	8cc/ 8ee/ 8bb/	8c\ 8e\ 8b\	.
.	8cc/ 8ee/ 8bb-/	8c\ 8e\ 8b-\	.
.	8cc/ 8ee/ 8aa/J	8c\ 8e\ 8a\J	.
=172	=172	=172	=172
2r	8r	8r	.
.	8a/ 8cc/ (8gg#/	8A'\ 8c'\ 8g#'\	.
.	8r	8r	.
.	8a/ 8cc/ 8ggn/	8A'\ 8c'\ 8gn'\	.
=173	=173	=173	=173
2r	8r	8r	.
.	8a/ 8cc/ 8ff#/	8A'\ 8c'\ 8f#'\	.
.	8r	8r	.
.	8a/ 8cc/ 8ffn/	8A\ 8c\ 8fn\	.
*	*v	*v	*
=174	=174	=174
8r	8r	.
4F#'\ 4c'\ 4e'\	4a'\ 4cc'\ 4ee'\)	.
8r	8r	.
=175	=175	=175
*^	*	*
4G/	[2BB\	4B^/ 4e^/ 4b^/	p
8.F#/L	.	8.B/ 8.d#/ 8.b/L	.
16G/Jk	.	16B/ 16e/ 16b/Jk	.
=176	=176	=176	=176
8A/L	2BB\_	8B'/ 8f#'/ 8b'/L	.
8F#/J	.	8B'/ 8d#'/ 8b'/J	.
4G/	.	4B^/ 4b^/	.
=177	=177	=177	=177
*	*	*^	*
8A/L	2BB\_	8c/ (8cc/L	2e\	.
8F#/J	.	8dn/ 8ddn/J	.	.
4G/	.	4B/ 4b/)	.	.
=178	=178	=178	=178	=178
8A/L	2BB\]	8c/ (8cc/L	2e\	.
8F#/J	.	8d/ 8dd/J	.	.
4G/	.	4B/ 4b/)	.	.
*	*	*v	*v	*
=179	=179	=179	=179
4B/	[2D\	4d/ 4g/ 4dd/	.
8.A/L	.	8.d/ 8.f#/ 8.dd/L	.
16B/Jk	.	16d/ 16g/ 16dd/Jk	.
=180	=180	=180	=180
8c/L	2D\_	8d'/ 8a'/ 8dd'/L	.
8A/J	.	8d'/ 8f#'/ 8dd'/J	.
4B/	.	4d^/ 4dd^/	.
=181	=181	=181	=181
*	*	*^	*
8c/L	2D\_	8e/ (8ee/L	2g\	.
8d/J	.	8f#/ 8ff#/J	.	.
4B/	.	4d/ 4dd/)	.	.
=182	=182	=182	=182	=182
8c/L	2D\]	8e/ (8ee/L	2g\	.
8d/J	.	8f#/ 8ff#/J	.	.
4B/	.	4d/ 4dd/)	.	.
*v	*v	*	*	*
*	*v	*v	*
=183	=183	=183
4Fn\ 4B\	4a-\ 4dd\	pp
8F\ 8B\L	8a-\ 8cc#\L	.
16r	16r	.
16F\ 16B\Jk	16a-\ 16dd\Jk	.
=184	=184	=184
8E-'^\ 8c-'^\L	8a-'^\ 8ee-'^\L	.
8E-'\ 8c-'\J	8a-'\ 8dd'\J	.
8E-\ 8c-\	8a-\ 8ee-\	.
8r	8r	.
=185	=185	=185
4D^\ 4B-^\	4a-^\ 4ffn^\	.
8D\ 8B-\L	8a-\ 8een\L	.
16r	16r	.
16D\ 16B-\Jk	16a-\ 16ff\Jk	.
=186	=186	=186
8D-'^\ 8B-'^\L	8g'^\ 8ee'^\L	.
8D-'\ 8B-'\J	8g'\ 8dd#'\J	.
8D-\ 8B-\	8g\ 8ee\	.
8r	8r	.
=187	=187	=187
4C^\ 4A^\	4e^/ 4ee^/	.
8C\ 8A\L	8e/ 8dd#/L	.
16r	16r	.
16C\ 16A\Jk	16e/ 16ee/Jk	.
=188	=188	=188
8BB'\ 8G'\L	8e'/ 8b'/L	.
8BB'\ 8G'\J	8e'/ 8a#'/J	.
8BB\ 8G\	8e/ 8b/	.
8r	8r	.
=189	=189	=189
8BB'^\ 8F#'^\L	8e'^/ 8cc'^/L	.
8BB'\ 8F#'\J	8e'/ 8b'/J	.
8BB\ 8F#\	8e/ 8cc/	.
8r	8r	.
=190	=190	=190
8BB\ 8A\L	8d#/ 8f#/L	pp
8BB\ 8A\J	8d#/ 8e#/J	.
8BB\ 8A\	8d#/ 8f#/	p
8r;	8r;	.
=191	=191	=191
*	*^	*
2r	4r	(16e\LL	.
.	.	16g\	.
.	.	16e\	.
.	.	16g\JJ	.
.	4b/	16e-'\LL	.
.	.	16g\	.
.	.	16e-\	.
.	.	16g\JJ	.
=192	=192	=192	=192
2r	8b-/L	16d\LL	.
.	.	16g\	.
.	&(8ee/J&)	16d\	.
.	.	16g\JJ	.
.	8r	16d\LL	.
.	.	16g\	.
.	8b-/	16d\	.
.	.	16g\JJ	.
=193	=193	=193	=193
2r	8a/L	16c#\LL	.
.	.	16g\	.
.	&(8ee/J&)	16c#\	.
.	.	16g\JJ	.
.	8r	16c#\LL	.
.	.	16g\	.
.	8a/	16c#\	.
.	.	16g\JJ	.
=194	=194	=194	=194
2r	8g#/L	16r	.
.	.	16b\LL	.
.	8ee/	16c#\	.
.	.	16b\JJ	.
.	8gn/	16r	.
.	.	16b\LL	.
.	&(8ee/J&)	16c#\)	.
.	.	16b\JJ	.
=195	=195	=195	=195
2r	4r	(16d\LL	<
.	.	16f#\	.
.	.	16d\	.
.	.	16f#\JJ	.
.	4a/	16d-\LL	.
.	.	16fn\	.
.	.	16d-\	.
.	.	16f\JJ	.
=196	=196	=196	=196
2r	8a-/L	16c\LL	.
.	.	16fn\	.
.	&(8dd/J&)	16c\	.
.	.	16f\JJ	.
.	8r	16c\LL	.
.	.	16f\	.
.	8a-/	16c\	.
.	.	16f\JJ	.
=197	=197	=197	=197
2r	8g/L	16r	.
.	.	16fn\LL	.
.	&(8dd/J&)	16B\	.
.	.	16f\JJ	.
.	8r	16B\LL	.
.	.	16f\	.
.	8g/	16B\	.
.	.	16f\JJ	.
=198	=198	=198	=198
2r	8f#/L	16r	.
.	.	16a\LL	<
.	8dd/	16B\	.
.	.	16a\JJ	.
.	8fn/	16r	.
.	.	16a\LL	.
.	&(8dd/J&)	16B\)	.
.	.	16a\JJ	.
=199	=199	=199	=199
2r	16e^/LL	8r	.
.	16dd/	.	.
.	16e/	8c\ 8g\L	.
.	16cc/JJ	.	.
.	16e/LL	8G\ 8g\	.
.	16cc/	.	.
.	16e/	8A\ 8g\J	.
.	16cc/JJ	.	.
=200	=200	=200	=200
2r	16d#^/LL	8r	.
.	16cc/	.	.
.	16d#/	8B\ 8f#\L	.
.	16b/JJ	.	.
.	16dn/LL	8F#\ 8f#\	.
.	16b/	.	.
.	16d/	8G#\ 8fn\J	.
.	16b/JJ	.	.
=201	=201	=201	=201
2r	16c/LL	8B^\ 8e^\L	.
.	16b/	.	.
.	16c/	8A\ 8e\	.
.	16a/JJ	.	.
.	16c/LL	8G\ 8e\	.
.	16g/	.	<
.	16c/	8F#\ 8e\J	.
.	16f#/JJ	.	.
=202	=202	=202	=202
2r	16c/LL	8G\ 8e\L	.
.	16g/	.	.
.	16c/	8A\ 8e\	.
.	16a/JJ	.	.
.	16B/ 16f#/LL	8e\	.
.	16b/	.	.
.	16B/ 16f#/	8d#\J	.
.	16b/JJ	.	.
*	*v	*v	*
=203	=203	=203
8BB^\ 8B^\L	16e/ 16b/ 16cc/LL	f
.	16ee/	.
8AA\ 8A\	16e/ 16a/ 16cc/	.
.	16ee/JJ	.
8GG\ 8G\	16e/ 16g/ 16cc/LL	.
.	16ee/	.
8FF#\ 8F#\J	16e/ 16f#/ 16cc/	.
.	16ee/JJ	.
=204	=204	=204
8GG\ 8G\L	16e/ 16g/ 16cc/LL	.
.	16ee/	.
8AA\ 8A\	16e/ 16a/ 16cc/	.
.	16ee/JJ	.
8BB\ 8B\	16d#/ 16b/LL	.
.	16dd#/	.
8BB\ 8B\J	16d#/ 16b/	.
.	16dd#/JJ	.
=205	=205	=205
16BBB^/LL	16cc\ 16ee\LL	ff
16BB/	16bb\	>
16AAA/	16cc\ 16ee\	.
16AA/JJ	16aa\JJ	.
16GGG/LL	16cc\ 16ee\LL	.
16GG/	16gg\	.
16FFF#/	16cc\ 16ee\	.
16FF#/JJ	16ff#\JJ	.
=206	=206	=206
16GGG/LL	16cc\ 16ee\LL	<
16GG/	16gg\	.
16GGG#/	16cc\ 16ee\	.
16GG#/JJ	16gg#\JJ	.
16GGGn/LL	16cc\ 16ee\LL	.
16GGn/	16ggn\	.
16GGG#/	16cc\ 16ee\	.
16GG#/JJ	16gg#\JJ	.
=207	=207	=207
16AAA/LL	16cc\ 16ee\LL	.
16AA/	16aa\	.
16GGG#/	16cc\ 16ee\	.
16GG#/JJ	16gg#\JJ	.
16AAA/LL	16cc\ 16ee\LL	.
16AA/	16aa\	.
16AAA#/	16cc\ 16ee\	.
16AA#/JJ	16aa#\JJ	.
=208	=208	=208
2BBB/ 2BB/	8b\ 8ee\ 8gg\ 8bb\	ff
.	8r	.
.	8a\ 8b\ 8dd#\ 8ff#\ 8bb\	.
.	8r	.
=209	=209	=209
4E^\ 4e^\	16r	.
.	(16g/LL	.
.	16a/	.
.	16f#/JJ	.
4BB^\ 4B^\	16g\LL	.
.	16b\	.
.	16ee\	.
.	16gg\JJ)	.
=210	=210	=210
4.GG^/ 4.G^/	16r	.
.	(16b\LL	.
.	16cc\	.
.	16a#\JJ	.
.	16b\LL	.
.	16ee\	.
8FF#^/ 8F#^/	16gg\	.
.	16bb\JJ)	.
=211	=211	=211
8.EE^/ 8.E^/L	16r	.
.	(16ee\LL	.
.	16ff#\	.
16DDn/ 16Dn/k	16dd#\JJ	.
8CC/ 8C/	16ee\LL	.
.	16gg\	.
8BBB/ 8BB/J	16bb\	.
.	16eee\JJ)	.
=212	=212	=212
8AAA#'/ 8AA#'/L	8.gg\ 8.ccc#\ 8.ggg\L	.
8CC#'/ 8C#'/	.	.
.	16ff#\ 16fff#\k	.
8FF#'/ 8F#'/	8ff#\ 8fff#\	.
8AA#'/ 8A#'/J	8ee\ 8eee\J	.
=213	=213	=213
8AAAn'^/ 8AAn'^/L	4ee\ 4aa\ 4cccn\ (4eee\	.
8EE'/ 8E'/	.	.
8Cn'/ 8cn'/J	8dd#\ 8ddd#\)	.
8r	8r	.
=214	=214	=214
8GGG#'/ 8GG#'/L	8.ffn\ 8.bb\ 8.fffn\L	.
8BBB'/ 8BB'/	.	.
.	16ee\ 16eee\k	.
8EE'/ 8E'/	8ee\ 8eee\	.
8GG#'/ 8G#'/J	8ddn\ 8dddn\J	.
=215	=215	=215
8GGGn'^/ 8GGn'^/L	4dd\ 4gg\ 4bb-\ (4ddd\	.
8DD'/ 8D'/	.	.
8BB-'/ 8B-'/J	8cc#\ 8ccc#\)	.
8r	8r	.
=216	=216	=216
*^	*^	*
(8E^/L	2FF#\	16r	16r	.
.	.	16e/LL	16A\ 16c\LL	p
8C#/	.	16r	16r	.
.	.	16c#/	16A\ 16cn\	.
8D/	.	16r	16r	.
.	.	16d/	16A\ 16cn\	.
8D#/J	.	16r	16r	.
.	.	16d#/JJ	16A\ 16c\JJ	.
*	*	*v	*v	*
=217	=217	=217	=217
8G/L)	4AA#\	16r	.
.	.	16c#/ 16e/ 16g/LL	.
8F#/J	.	16r	.
.	.	16c#/ 16e/ 16f#/JJ	.
4An/	4BB\	4B/ 4d#/ 4b/	mf
=218	=218	=218	=218
*	*	*^	*
(8e/L	2F#^\	16r	16r	.
.	.	16ee/LL	16a\ 16cc\LL	<
8c#/	.	16r	16r	.
.	.	16cc#/	16a\ 16ccn\	.
8d/	.	16r	16r	.
.	.	16dd/	16a\ 16ccn\	.
8d#/J	.	16r	16r	.
.	.	16dd#/JJ	16a\ 16cc\JJ	.
*	*	*v	*v	*
=219	=219	=219	=219
8g/L	4A#\	16r	.
.	.	16cc#\ 16ee\ 16gg\LL	.
8f#/J)	.	16r	.
.	.	16cc#\ 16ee\ 16ff#\JJ	.
4f#^/	4An\	4b\ 4dd#\ 4bb\	.
=220	=220	=220	=220
(8fn/L	4G#\	16r	.
.	.	16b\ 16ddn\ 16ffn\LL	.
8e/J)	.	16r	.
.	.	16b\ 16dd\ 16ee\JJ	.
4e^/	4Gn\	4a\ 4cc#\ 4aa\	.
=221	=221	=221	=221
8e^/L	4F#\	16r	.
.	.	16a/ 16ccn/ 16ee/LL	.
8d#/	.	16r	.
.	.	16a/ 16cc/ 16dd#/	.
8dn/	4D#\	16r	.
.	.	16f#/ 16a/ 16ddn/	.
8c#/J	.	16r	.
.	.	16f#/ 16a/ 16cc#/JJ	.
=222	=222	=222	=222
8cn/L	4E\	16r	.
.	.	16e/ 16g/ 16ccn/LL	.
8B/	.	16r	.
.	.	16e/ 16g/ 16b/	.
8A#^/	4C\	16r	.
.	.	16c/ 16e/ 16a#/	.
8An/J	.	16r	.
.	.	16c/ 16e/ 16an/JJ	ff
=223	=223	=223	=223
8G#/L	[2AA#\	16r	.
.	.	16c#/ 16g#/LL	.
8Gn/	.	16r	.
.	.	16c#/ 16gn/	>
8D#/	.	16r	.
.	.	16c#/ 16d#/	.
8E/J	.	16r	.
.	.	16c#/ 16e/JJ	.
=224	=224	=224	=224
8F#/L	4AA#\]	16r	.
.	.	16c#/ 16f#/LL	.
8G/	.	16r	.
.	.	16c#/ 16g/	.
8A#'/	4r	16r	.
.	.	16a#/	.
8c#'/J	.	16r	.
.	.	16cc#/JJ	.
*v	*v	*	*
*clefG2	*	*
=225	=225	=225
8e'/L	16r	.
.	16ee\LL	.
8g'/	16r	.
.	16gg\	.
8a#'/	16r	.
.	16aa#\	.
8cc#'/J	16r	.
.	16ccc#\JJ	.
=226	=226	=226
8ee'\	8eee'\	.
8r	8r	.
4r	8gg'\ 8ggg'\	.
.	8r	.
=227	=227	=227
4B/ 4e/ 4g/ 4b/	4bb\ 4eee\ 4ggg\ 4bbb\	ff
4r	4r	.
*clefF4	*	*
=228	=228	=228
4BB\ 4F#\ 4A\ 4B\	4d#/ 4f#/ 4a/ 4b/ 4dd#/	ff
4r	4r	.
=229	=229	=229
4EE/ 4GG/ 4BB/ 4E/	4e/ 4g/ 4b/ 4ee/	ff
4r	4r	.
==	==	==
*-	*-	*-
!!!ENC: Craig Stuart Sapp
!!!END: 2008/07/11/
